images_sukapura_svg/cmd/sc_hyphenate.svg

<svg viewBox="0 0 16 16" xmlns="http://www.w3.org/2000/svg" xmlns:xlink="http://www.w3.org/1999/xlink"><linearGradient id="a" gradientTransform="translate(-29.694915 1.220339)" gradientUnits="userSpaceOnUse" x1="14" x2="13.79661" y1="22" y2="2.135593"><stop offset="0" stop-color="#0040dd"/><stop offset="1" stop-color="#0a84ff"/></linearGradient><linearGradient id="b" gradientUnits="userSpaceOnUse" x1="7" x2="7" xlink:href="#a" y1="16" y2="8"/><linearGradient id="c" gradientUnits="userSpaceOnUse" x1="14" x2="14" xlink:href="#a" y1="16" y2="8"/><path d="m15 8v2c0 1.104569-.895431 2-2 2h-2v1.000038l2 .000003c1.656854 0 3-1.343146 3-3v-2z" fill="url(#c)" fill-rule="evenodd"/><g fill="#4b4b4f" stroke-width=".281312"><path d="m5.120756 6.1317214h-3.1317928l-.6373473 1.8680869h-1.3516159l2.9394898-7.99980764h1.2637058l2.9065236 7.99980764h-1.3571103zm-2.7471867-1.1153578h2.3680749l-1.1593128-3.4175003h-.032966z"/><path d="m8.0382684 7.9998083v-7.99980764h2.6592766q1.329638 0 2.076873.54943734.747235.543943.747235 1.6318289 0 .543943-.313179.9725041-.31318.4285611-.868111.6373473.714268.1593368 1.098874.6867967.384607.5274598.384607 1.2252452 0 1.1263466-.736246 1.7142445-.736246.5824036-2.032919.5824036zm1.3351327-3.6372752v2.5713668h1.6812779q.692291 0 1.065909-.3131793.373617-.3186737.373617-.9175604 0-.6373473-.313179-.9889872-.313179-.3516399-.977999-.3516399zm0-.9944816h1.4724919q.620864 0 .977999-.2912017.362628-.2966962.362628-.8351448 0-.5933923-.379111-.8790997-.379112-.2912018-1.109864-.2912018h-1.3241439z"/></g><path d="m6.6207199 13.230835.010989.03297q.0219773 1.214253-.79119 1.977971-.8076729.758224-2.192255.758224-1.4010652 0-2.2801649-.939538-.8736054-.945032-.8736054-2.41203v-1.521942q0-1.4615029.8626166-2.4065351.868111-.9505266 2.2526931-.9505266 1.4175483 0 2.2307156.7472348.8186616.7417404.7966841 1.9999519l-.010989.03297h-1.2911774q0-.8076726-.4395499-1.2582113-.4340555-.4505386-1.2856834-.4505386-.8186616 0-1.3021665.6483361-.4780105.6483358-.4780105 1.6263348v1.53293q0 .988987.4889993 1.637323.4944936.648336 1.3296383.648336.8296504 0 1.2582115-.445044.4285612-.445044.4285612-1.258212z" fill="#4b4b4f"/><path d="m10.484375 9a.499522.499522 0 0 0 -.337891.1464844l-2.9999996 2.9999996a.499522.499522 0 0 0 0 .707032l2.9999996 3a.499522.499522 0 0 0 .853516-.353516v-6a.499522.499522 0 0 0 -.515625-.5z" fill="url(#b)"/></svg>

<?xml version="1.0" encoding="UTF-8" standalone="no"?>
<svg
   xmlns:dc="http://purl.org/dc/elements/1.1/"
   xmlns:cc="http://creativecommons.org/ns#"
   xmlns:rdf="http://www.w3.org/1999/02/22-rdf-syntax-ns#"
   xmlns:svg="http://www.w3.org/2000/svg"
   xmlns="http://www.w3.org/2000/svg"
   xmlns:xlink="http://www.w3.org/1999/xlink"
   xmlns:sodipodi="http://sodipodi.sourceforge.net/DTD/sodipodi-0.dtd"
   xmlns:inkscape="http://www.inkscape.org/namespaces/inkscape"
   viewBox="0 0 16 16"
   version="1.1"
   id="svg12"
   sodipodi:docname="sc_hyphenate.svg"
   inkscape:version="0.92.3 (2405546, 2018-03-11)">
  <metadata
     id="metadata18">
    <rdf:RDF>
      <cc:Work
         rdf:about="">
        <dc:format>image/svg+xml</dc:format>
        <dc:type
           rdf:resource="http://purl.org/dc/dcmitype/StillImage" />
        <dc:title></dc:title>
      </cc:Work>
    </rdf:RDF>
  </metadata>
  <defs
     id="defs16">
    <linearGradient
       gradientTransform="translate(-29.694915,1.220339)"
       id="a-6"
       gradientUnits="userSpaceOnUse"
       x1="14"
       x2="13.79661"
       y1="22"
       y2="2.1355929">
      <stop
         offset="0"
         stop-color="#0040dd"
         id="stop2" />
      <stop
         offset="1"
         stop-color="#0a84ff"
         id="stop4" />
    </linearGradient>
    <linearGradient
       inkscape:collect="always"
       xlink:href="#a-6"
       id="linearGradient902"
       x1="7"
       y1="16"
       x2="7"
       y2="8"
       gradientUnits="userSpaceOnUse" />
    <linearGradient
       inkscape:collect="always"
       xlink:href="#a-6"
       id="linearGradient913"
       x1="14"
       y1="16"
       x2="14"
       y2="8"
       gradientUnits="userSpaceOnUse" />
  </defs>
  <sodipodi:namedview
     pagecolor="#ffffff"
     bordercolor="#666666"
     borderopacity="1"
     objecttolerance="10"
     gridtolerance="10"
     guidetolerance="10"
     inkscape:pageopacity="0"
     inkscape:pageshadow="2"
     inkscape:window-width="1366"
     inkscape:window-height="716"
     id="namedview14"
     showgrid="true"
     inkscape:zoom="16"
     inkscape:cx="6.0659172"
     inkscape:cy="7.0814801"
     inkscape:window-x="-8"
     inkscape:window-y="-8"
     inkscape:window-maximized="1"
     inkscape:current-layer="svg12">
    <inkscape:grid
       type="xygrid"
       id="grid828" />
  </sodipodi:namedview>
  <path
     d="m 15,8 v 2 c 0,1.104569 -0.895431,2 -2,2 h -2 v 1.000038 l 2,3e-6 c 1.656854,0 3,-1.343146 3,-3 v -2 z"
     id="path10"
     inkscape:connector-curvature="0"
     style="fill:url(#linearGradient913);fill-rule:evenodd;stroke:none;fill-opacity:1"
     sodipodi:nodetypes="csccccscc" />
  <g
     aria-label="AB"
     style="font-style:normal;font-weight:normal;font-size:11.25247669px;line-height:1.25;font-family:sans-serif;letter-spacing:0px;word-spacing:0px;fill:#4b4b4f;fill-opacity:1;stroke:none;stroke-width:0.28131196"
     id="text832">
    <path
       d="M 5.120756,6.1317214 H 1.9889632 L 1.3516159,7.9998083 H 0 L 2.9394898,6.6310167e-7 H 4.2031956 L 7.1097192,7.9998083 H 5.7526089 Z M 2.3735693,5.0163636 H 4.7416442 L 3.5823314,1.5988633 h -0.032966 z"
       style="font-style:normal;font-variant:normal;font-weight:500;font-stretch:normal;font-family:Roboto;-inkscape-font-specification:'Roboto Medium';stroke-width:0.28131196;fill:#4b4b4f;fill-opacity:1"
       id="path841" />
    <path
       d="M 8.0382684,7.9998083 V 6.6310167e-7 h 2.6592766 q 1.329638,0 2.076873,0.54943733689833 0.747235,0.543943 0.747235,1.6318289 0,0.543943 -0.313179,0.9725041 -0.31318,0.4285611 -0.868111,0.6373473 0.714268,0.1593368 1.098874,0.6867967 0.384607,0.5274598 0.384607,1.2252452 0,1.1263466 -0.736246,1.7142445 -0.736246,0.5824036 -2.032919,0.5824036 z M 9.3734011,4.3625331 v 2.5713668 h 1.6812779 q 0.692291,0 1.065909,-0.3131793 0.373617,-0.3186737 0.373617,-0.9175604 0,-0.6373473 -0.313179,-0.9889872 -0.313179,-0.3516399 -0.977999,-0.3516399 z m 0,-0.9944816 h 1.4724919 q 0.620864,0 0.977999,-0.2912017 0.362628,-0.2966962 0.362628,-0.8351448 0,-0.5933923 -0.379111,-0.8790997 Q 11.428297,1.0714035 10.697545,1.0714035 H 9.3734011 Z"
       style="font-style:normal;font-variant:normal;font-weight:500;font-stretch:normal;font-family:Roboto;-inkscape-font-specification:'Roboto Medium';stroke-width:0.28131196;fill:#4b4b4f;fill-opacity:1"
       id="path843" />
  </g>
  <g
     aria-label="C"
     style="font-style:normal;font-weight:normal;font-size:11.25247669px;line-height:1.25;font-family:sans-serif;letter-spacing:0px;word-spacing:0px;fill:#4b4b4f;fill-opacity:1;stroke:none;stroke-width:0.28131196"
     id="text836">
    <path
       d="m 6.6207199,13.230835 0.010989,0.03297 Q 6.6536862,14.478058 5.8405189,15.241776 5.032846,16 3.6482639,16 2.2471987,16 1.368099,15.060462 0.4944936,14.11543 0.4944936,12.648432 V 11.12649 q 0,-1.4615029 0.8626166,-2.4065351 0.868111,-0.9505266 2.2526931,-0.9505266 1.4175483,0 2.2307156,0.7472348 0.8186616,0.7417404 0.7966841,1.9999519 l -0.010989,0.03297 H 5.3350366 q 0,-0.8076726 -0.4395499,-1.2582113 -0.4340555,-0.4505386 -1.2856834,-0.4505386 -0.8186616,0 -1.3021665,0.6483361 -0.4780105,0.6483358 -0.4780105,1.6263348 v 1.53293 q 0,0.988987 0.4889993,1.637323 0.4944936,0.648336 1.3296383,0.648336 0.8296504,0 1.2582115,-0.445044 0.4285612,-0.445044 0.4285612,-1.258212 z"
       style="font-style:normal;font-variant:normal;font-weight:500;font-stretch:normal;font-family:Roboto;-inkscape-font-specification:'Roboto Medium';stroke-width:0.28131196;fill:#4b4b4f;fill-opacity:1"
       id="path838" />
  </g>
  <path
     style="fill:url(#linearGradient902);fill-opacity:1;stroke:none;stroke-width:1px;stroke-linecap:butt;stroke-linejoin:miter;stroke-opacity:1"
     d="M 10.484375,9 A 0.499522,0.499522 0 0 0 10.146484,9.1464844 L 7.1464844,12.146484 a 0.499522,0.499522 0 0 0 0,0.707032 l 2.9999996,3 A 0.499522,0.499522 0 0 0 11,15.5 v -6 A 0.499522,0.499522 0 0 0 10.484375,9 Z"
     id="path846" />
</svg>
